assets/img/braze_icons/annotation.svg

<svg fill="none" height="24" viewBox="0 0 24 24" width="24" xmlns="http://www.w3.org/2000/svg"><path clip-rule="evenodd" d="m7.7587 2h8.4826c.805-.00001 1.4693-.00002 2.0105.04419.5621.04593 1.0788.14449 1.5642.39178.7526.3835 1.3645.99542 1.748 1.74807.2473.48533.3459 1.00204.3918 1.56413.0442.54119.0442 1.20555.0442 2.01051v5.77562c0 .6698 0 1.2226-.0309 1.6752-.032.4693-.1005.9034-.2736 1.3212-.406.9801-1.1847 1.7588-2.1648 2.1648-.4178.1731-.8519.2416-1.3212.2736-.4526.0309-1.0054.0309-1.6752.0309h-.0343c-.5366 0-.6431.0063-.7298.0268-.151.0356-.2918.106-.4109.2054-.0684.0571-.1374.1386-.4593.5678l-1.4769 1.9692c-.0934.1246-.1989.2654-.3005.3784-.112.1245-.2982.3079-.5789.4171-.3497.136-.7377.136-1.0874 0-.2807-.1092-.4669-.2926-.5789-.4171-.1016-.113-.2071-.2538-.3005-.3784l-1.4769-1.9692c-.32194-.4292-.39087-.5107-.45925-.5678-.11919-.0994-.2599-.1698-.411-.2054-.08668-.0205-.19319-.0268-.72975-.0268h-.03427c-.66979 0-1.22266 0-1.67527-.0309-.46928-.032-.90338-.1005-1.32119-.2736-.98012-.406-1.75881-1.1847-2.16479-2.1648-.17306-.4178-.2416-.8519-.27361-1.3212-.03089-.4526-.03088-1.0054-.03087-1.6752v-5.7756c-.00001-.80497-.00002-1.46933.04419-2.01053.04593-.56209.14449-1.0788.39178-1.56413.3835-.75265.99542-1.36457 1.74807-1.74807.48533-.24729 1.00204-.34585 1.56413-.39178.5412-.04421 1.20556-.0442 2.01053-.04419z" fill="#801ed7" fill-rule="evenodd"/></svg>

<svg width="24" height="24" viewBox="0 0 24 24" fill="none" xmlns="http://www.w3.org/2000/svg">
<path fill-rule="evenodd" clip-rule="evenodd" d="M7.7587 2H16.2413C17.0463 1.99999 17.7106 1.99998 18.2518 2.04419C18.8139 2.09012 19.3306 2.18868 19.816 2.43597C20.5686 2.81947 21.1805 3.43139 21.564 4.18404C21.8113 4.66937 21.9099 5.18608 21.9558 5.74817C22 6.28936 22 6.95372 22 7.75868V13.5343C22 14.2041 22 14.7569 21.9691 15.2095C21.9371 15.6788 21.8686 16.1129 21.6955 16.5307C21.2895 17.5108 20.5108 18.2895 19.5307 18.6955C19.1129 18.8686 18.6788 18.9371 18.2095 18.9691C17.7569 19 17.2041 19 16.5343 19H16.5C15.9634 19 15.8569 19.0063 15.7702 19.0268C15.6192 19.0624 15.4784 19.1328 15.3593 19.2322C15.2909 19.2893 15.2219 19.3708 14.9 19.8L13.4231 21.7692C13.3297 21.8938 13.2242 22.0346 13.1226 22.1476C13.0106 22.2721 12.8244 22.4555 12.5437 22.5647C12.194 22.7007 11.806 22.7007 11.4563 22.5647C11.1756 22.4555 10.9894 22.2721 10.8774 22.1476C10.7758 22.0346 10.6703 21.8938 10.5769 21.7692L9.1 19.8C8.77806 19.3708 8.70913 19.2893 8.64075 19.2322C8.52156 19.1328 8.38085 19.0624 8.22975 19.0268C8.14307 19.0063 8.03656 19 7.5 19H7.46573C6.79594 19 6.24307 19 5.79046 18.9691C5.32118 18.9371 4.88708 18.8686 4.46927 18.6955C3.48915 18.2895 2.71046 17.5108 2.30448 16.5307C2.13142 16.1129 2.06288 15.6788 2.03087 15.2095C1.99998 14.7569 1.99999 14.2041 2 13.5343L2 7.7587C1.99999 6.95373 1.99998 6.28937 2.04419 5.74817C2.09012 5.18608 2.18868 4.66937 2.43597 4.18404C2.81947 3.43139 3.43139 2.81947 4.18404 2.43597C4.66937 2.18868 5.18608 2.09012 5.74817 2.04419C6.28937 1.99998 6.95373 1.99999 7.7587 2Z" fill="#801ED7"/>
</svg>
